X:1
T: The Sheep on the Mountain
C:
R:Jig
Q:180
K:D
M:6/8
L:1/16
D2|F6G6|A2d2B2 c2A2G2|A6d6|A6d6|F6G6|A4d2 c2A2F2|G6 A2F2D2|G6 A2F2D2|
F6G6|A2d2B2 c2A2G2|A2BAGA d6|A2BAGA d6|F2F2F2 G2G2G2|A2d2B2 c2A2F2|G6 A2F2D2|G2F2E2 D4f2|
f2e2d2 e2f2g2|a2f2d2 c2A2G2|A6d6|A6d6|f2e2d2 e2f2g2|a2f2d2 c2A2F2|G6 A2F2D2|G6 A2F2D2|
f2e2d2 e2f2g2|a2f2d2 c2A2G2|A6d6|A6d6|f6g6|a2f2d2 c2A2F2|G6 A2F2D2|G6 A2F2D2|
F6G6|A2d2B2 c2A2G2|A6d6|A6d6|F6G6|A4d2 c2A2F2|G6 A2F2D2|G6 A2F2D2|
F6G6|A2d2B2 c2A2G2|A2BAGA d6|A2BAGA d6|F2F2F2 G2G2G2|A2d2B2 c2A2F2|G6 A2F2D2|G2F2E2 D4||
